; generated by Slic3r Prusa Edition 1.41.3+ on 2019-03-01 at 10:40:30

; 

; external perimeters extrusion width = 0.45mm
; perimeters extrusion width = 0.45mm
; infill extrusion width = 0.45mm
; solid infill extrusion width = 0.45mm
; top infill extrusion width = 0.40mm
; first layer extrusion width = 0.42mm

M73 P0 R97
M201 X9000 Y9000 Z500 E10000 ; sets maximum accelerations, mm/sec^2
M203 X500 Y500 Z12 E120 ; sets maximum feedrates, mm/sec
M204 P2000 R1500 T2000 ; sets acceleration (P, T) and retract acceleration (R), mm/sec^2
M205 X10.00 Y10.00 Z0.20 E2.50 ; sets the jerk limits, mm/sec
M205 S0 T0 ; sets the minimum extruding and travel feed rate, mm/sec
M107
M115 U3.5.1 ; tell printer latest fw version
M83  ; extruder relative mode
M104 S230 ; set extruder temp
M140 S85 ; set bed temp
M190 S85 ; wait for bed temp
M109 S230 ; wait for extruder temp
G28 W ; home all without mesh bed level
G80 ; mesh bed leveling
G1 Y-3.0 F1000.0 ; go outside print area
G92 E0.0
G1 X60.0 E9.0  F1000.0 ; intro line
M73 P0 R97
G1 X100.0 E12.5  F1000.0 ; intro line
G92 E0.0
M900 K45 ; Filament gcode
G21 ; set units to millimeters
G90 ; use absolute coordinates
M83 ; use relative distances for extrusion
;BEFORE_LAYER_CHANGE
G92 E0.0
;0.2


G1 E-0.80000 F2100.00000
G1 Z0.600 F10800.000
;AFTER_LAYER_CHANGE
;0.2
G1 X84.726 Y73.251
G1 Z0.200
G1 E0.80000 F2100.00000
M204 S1000
G1 F1200
G1 X85.161 Y72.909 E0.01737
G1 X85.669 Y72.687 E0.01737
G1 X86.213 Y72.600 E0.01726
G1 X117.294 Y72.598 E0.97454
G1 X117.889 Y72.682 E0.01885
G1 X140.452 Y79.203 E0.73638
G1 X143.101 Y80.109 E0.08779
G1 X143.668 Y80.547 E0.02247
G1 X144.064 Y81.145 E0.02247
G1 X144.247 Y81.872 E0.02349
G1 X144.252 Y83.613 E0.05461
G1 X142.714 Y127.810 E1.38660
G1 X142.629 Y128.332 E0.01658
G1 X142.422 Y128.818 E0.01658
G1 X142.114 Y129.230 E0.01612
G1 X141.722 Y129.557 E0.01601
G1 X141.261 Y129.785 E0.01612
G1 X140.760 Y129.899 E0.01612
G1 X126.697 Y130.501 E0.44133
G1 X117.333 Y130.501 E0.29360
G1 X85.470 Y129.643 E0.99940
G1 X84.933 Y129.561 E0.01703
G1 X84.433 Y129.349 E0.01703
G1 X83.982 Y129.003 E0.01783
G1 X83.634 Y128.549 E0.01794
G1 X83.415 Y128.020 E0.01794
G1 X83.341 Y127.455 E0.01788
G1 X83.341 Y103.411 E0.75388
G1 X84.098 Y74.711 E0.90018
G1 X84.182 Y74.182 E0.01680
G1 X84.392 Y73.689 E0.01680
G1 X84.689 Y73.299 E0.01538
; PURGING FINISHED
G1 F8640
G1 X85.161 Y72.909 E-0.14139
G1 X85.669 Y72.687 E-0.12793
G1 X86.213 Y72.600 E-0.12709
G1 X87.787 Y72.600 E-0.36359
G1 E-0.04000 F2100.00000
G1 Z0.800 F10800.000
G1 X119.430 Y119.498
G1 Z0.200
G1 E0.80000 F2100.00000
G1 F1200
G1 X119.896 Y119.221 E0.01700
G1 X120.276 Y119.090 E0.01261
G1 X120.806 Y119.023 E0.01676
G1 X121.203 Y119.055 E0.01247
G1 X121.570 Y119.148 E0.01188
G1 X121.928 Y119.305 E0.01224
G1 X122.379 Y119.627 E0.01739
G1 X122.738 Y120.050 E0.01739
G1 X122.923 Y120.393 E0.01224
G1 X123.050 Y120.763 E0.01224
G1 X123.119 Y121.313 E0.01739
G1 X123.050 Y121.863 E0.01739
G1 X122.923 Y122.233 E0.01224
G1 X122.743 Y122.565 E0.01185
G1 X122.511 Y122.863 E0.01185
G1 X122.224 Y123.128 E0.01224
G1 X121.758 Y123.405 E0.01700
G1 X121.377 Y123.536 E0.01262
G1 X120.827 Y123.605 E0.01738
G1 X120.285 Y123.538 E0.01714
G1 X119.897 Y123.406 E0.01285
G1 X119.430 Y123.128 E0.01703
G1 X119.143 Y122.863 E0.01224
G1 X118.903 Y122.555 E0.01224
G1 X118.665 Y122.068 E0.01700
G1 X118.569 Y121.690 E0.01224
G1 X118.538 Y121.313 E0.01185
G1 X118.569 Y120.936 E0.01185
G1 X118.665 Y120.558 E0.01224
G1 X118.903 Y120.071 E0.01700
G1 X119.143 Y119.763 E0.01224
G1 X119.386 Y119.539 E0.01036
G1 X119.641 Y119.816 F10800.000
G1 F1200
G1 X120.055 Y119.565 E0.01519
G1 X120.362 Y119.459 E0.01016
G1 X120.815 Y119.402 E0.01432
G1 X121.141 Y119.428 E0.01026
G1 X121.447 Y119.506 E0.00990
G1 X121.740 Y119.634 E0.01003
G1 X122.122 Y119.907 E0.01469
G1 X122.425 Y120.264 E0.01469
G1 X122.577 Y120.545 E0.01003
G1 X122.681 Y120.848 E0.01003
G1 X122.739 Y121.313 E0.01469
G1 X122.681 Y121.778 E0.01469
G1 X122.577 Y122.081 E0.01003
G1 X122.427 Y122.358 E0.00989
G1 X122.233 Y122.607 E0.00989
G1 X121.997 Y122.824 E0.01003
G1 X121.599 Y123.061 E0.01455
G1 X121.292 Y123.167 E0.01017
G1 X120.827 Y123.225 E0.01469
G1 X120.369 Y123.168 E0.01446
G1 X120.056 Y123.062 E0.01039
G1 X119.657 Y122.824 E0.01456
G1 X119.421 Y122.607 E0.01003
G1 X119.225 Y122.355 E0.01003
G1 X119.021 Y121.938 E0.01455
G1 X118.942 Y121.627 E0.01003
G1 X118.916 Y121.313 E0.00989
G1 X118.942 Y120.999 E0.00989
G1 X119.021 Y120.688 E0.01003
G1 X119.225 Y120.271 E0.01455
G1 X119.421 Y120.019 E0.01003
G1 X119.597 Y119.857 E0.00750
G1 X119.595 Y119.419 F10800.000
G1 F8640
G1 X120.055 Y119.565 E-0.12551
G1 X120.362 Y119.459 E-0.07485
G1 X120.815 Y119.402 E-0.10547
G1 X121.141 Y119.428 E-0.07552
G1 X121.447 Y119.506 E-0.07294
G1 X121.740 Y119.634 E-0.07388
G1 X122.122 Y119.907 E-0.10818
G1 X122.425 Y120.264 E-0.10818
G1 X122.456 Y120.323 E-0.01547
G1 E-0.04000 F2100.00000
G1 Z0.800 F10800.000
G1 X120.167 Y113.409
G1 Z0.200
G1 E0.80000 F2100.00000
G1 F1200
G1 X119.688 Y113.192 E0.01648
G1 X119.377 Y112.963 E0.01214
G1 X119.109 Y112.683 E0.01215
G1 X118.833 Y112.235 E0.01648
G1 X118.702 Y111.870 E0.01218
G1 X118.636 Y111.477 E0.01248
G1 X118.658 Y110.962 E0.01616
G1 X118.761 Y110.565 E0.01285
G1 X118.998 Y110.095 E0.01652
G1 X119.241 Y109.793 E0.01214
G1 X119.523 Y109.546 E0.01178
G1 X119.853 Y109.343 E0.01214
G1 X120.349 Y109.168 E0.01649
G1 X120.733 Y109.119 E0.01214
G1 X121.108 Y109.135 E0.01178
G1 X121.487 Y109.217 E0.01214
G1 X121.966 Y109.434 E0.01648
G1 X122.277 Y109.663 E0.01214
G1 X122.545 Y109.943 E0.01214
G1 X122.821 Y110.391 E0.01648
G1 X122.952 Y110.756 E0.01218
G1 X123.018 Y111.149 E0.01248
G1 X122.996 Y111.664 E0.01616
G1 X122.893 Y112.061 E0.01285
G1 X122.656 Y112.531 E0.01652
G1 X122.413 Y112.833 E0.01214
G1 X122.131 Y113.080 E0.01177
G1 X121.801 Y113.283 E0.01214
G1 X121.305 Y113.458 E0.01649
G1 X120.921 Y113.507 E0.01214
G1 X120.546 Y113.491 E0.01177
G1 X120.226 Y113.422 E0.01026
G1 X120.306 Y113.053 F10800.000
G1 F1200
G1 X119.880 Y112.865 E0.01460
G1 X119.627 Y112.678 E0.00988
G1 X119.409 Y112.451 E0.00988
G1 X119.174 Y112.071 E0.01398
G1 X119.069 Y111.774 E0.00989
G1 X119.014 Y111.454 E0.01020
G1 X119.033 Y111.018 E0.01367
G1 X119.115 Y110.699 E0.01033
G1 X119.317 Y110.301 E0.01400
G1 X119.514 Y110.055 E0.00988
G1 X119.748 Y109.850 E0.00974
G1 X120.016 Y109.686 E0.00987
G1 X120.437 Y109.537 E0.01398
G1 X120.749 Y109.497 E0.00988
G1 X121.060 Y109.510 E0.00974
G1 X121.368 Y109.577 E0.00988
G1 X121.774 Y109.761 E0.01398
G1 X122.027 Y109.948 E0.00988
G1 X122.245 Y110.175 E0.00988
G1 X122.480 Y110.555 E0.01398
G1 X122.585 Y110.852 E0.00989
G1 X122.640 Y111.172 E0.01020
G1 X122.621 Y111.608 E0.01367
G1 X122.539 Y111.927 E0.01033
G1 X122.337 Y112.325 E0.01400
G1 X122.140 Y112.571 E0.00988
G1 X121.906 Y112.776 E0.00974
G1 X121.638 Y112.940 E0.00987
G1 X121.217 Y113.089 E0.01398
G1 X120.905 Y113.129 E0.00988
G1 X120.594 Y113.116 E0.00974
G1 X120.365 Y113.066 E0.00736
G1 X120.008 Y113.319 F10800.000
G1 F8640
G1 X119.880 Y112.865 E-0.12115
G1 X119.627 Y112.678 E-0.07273
G1 X119.409 Y112.451 E-0.07274
G1 X119.174 Y112.071 E-0.10299
G1 X119.069 Y111.774 E-0.07282
G1 X119.014 Y111.454 E-0.07508
G1 X119.033 Y111.018 E-0.10067
G1 X119.115 Y110.699 E-0.07605
G1 X119.244 Y110.445 E-0.06578
G1 E-0.04000 F2100.00000
G1 Z0.800 F10800.000
G1 X117.964 Y105.900
G1 Z0.200
G1 E0.80000 F2100.00000
G1 F1200
G1 X126.090 Y105.900 E0.25478
G1 X126.090 Y127.726 E0.68433
G1 X117.964 Y127.726 E0.25478
G1 X117.964 Y105.960 E0.68245
G1 X117.587 Y105.523 F10800.000
G1 F1200
G1 X126.467 Y105.523 E0.27843
G1 X126.467 Y128.103 E0.70798
G1 X117.587 Y128.103 E0.27843
G1 X117.587 Y105.583 E0.70610
G1 X117.956 Y105.678 F10800.000
G1 F8640
G1 X120.878 Y105.561 E-0.76000
G1 E-0.04000 F2100.00000
G1 Z0.800 F10800.000
G1 X118.608 Y110.705
G1 Z0.200
G1 E0.80000 F2100.00000
G1 F1200
G1 X118.247 Y110.344 E0.01613
G1 X118.247 Y109.807 E0.01700
G1 X118.632 Y110.192 E0.01723
G1 X118.759 Y109.941 E0.00889
G1 X118.830 Y109.852 E0.00359
G1 X118.247 Y109.269 E0.02609
G1 X118.247 Y108.731 E0.01700
G1 X119.077 Y109.561 E0.03711
G1 X119.364 Y109.311 E0.01205
G1 X118.247 Y108.193 E0.04997
G1 X118.247 Y107.656 E0.01700
G1 X119.698 Y109.107 E0.06488
G1 X120.089 Y108.960 E0.01321
G1 X118.247 Y107.118 E0.08236
G1 X118.247 Y106.580 E0.01700
G1 X120.527 Y108.860 E0.10194
G1 X120.721 Y108.835 E0.00619
G1 X121.054 Y108.849 E0.01053
G1 X118.387 Y106.183 E0.11922
G1 X118.925 Y106.183 E0.01700
G1 X122.230 Y109.488 E0.14779
G1 F8640
G1 X119.903 Y107.161 E-0.76000
G1 E-0.04000 F2100.00000
G1 Z0.800 F10800.000
G1 X118.313 Y110.868
G1 Z0.200
G1 E0.80000 F2100.00000
G1 F1200
G1 X118.300 Y111.483 E0.01605
G1 X118.324 Y111.791 E0.00763
G1 X118.537 Y112.247 F10800.000
G1 F1200
G1 X118.361 Y112.072 E0.00784
G1 X118.247 Y112.082 E0.00363
G1 X118.247 Y112.495 E0.01308
G1 X125.807 Y120.055 E0.33803
G1 X125.807 Y120.593 E0.01700
G1 X118.247 Y113.033 E0.33803
G1 X118.247 Y113.571 E0.01700
G1 X125.807 Y121.131 E0.33803
G1 X125.807 Y121.669 E0.01700
G1 X118.247 Y114.108 E0.33803
G1 X118.247 Y114.646 E0.01700
G1 X125.807 Y122.206 E0.33803
G1 X125.807 Y122.744 E0.01700
G1 X118.247 Y115.184 E0.33803
G1 X118.247 Y115.722 E0.01700
G1 X121.318 Y118.792 E0.13730
G1 X120.800 Y118.739 E0.01645
G1 X120.735 Y118.747 E0.00207
G1 X118.247 Y116.259 E0.11124
G1 X118.247 Y116.797 E0.01700
G1 X120.257 Y118.807 E0.08989
G1 X119.850 Y118.938 E0.01353
G1 X118.247 Y117.335 E0.07167
G1 X118.247 Y117.872 E0.01700
G1 X119.501 Y119.127 E0.05608
G1 X119.260 Y119.270 E0.00887
G1 X119.180 Y119.344 E0.00342
G1 X118.247 Y118.410 E0.04174
G1 X118.247 Y118.948 E0.01700
G1 X118.906 Y119.607 E0.02946
G1 X118.670 Y119.909 E0.01211
G1 X118.247 Y119.486 E0.01894
G1 X118.247 Y120.023 E0.01700
G1 X118.619 Y120.395 E0.01662
G1 X118.310 Y120.548 F10800.000
G1 F1200
G1 X118.269 Y120.876 E0.00772
G1 X118.251 Y121.305 E0.00833
G1 X118.268 Y121.730 E0.00696
G1 X118.310 Y122.078 E0.00572
G1 F8640
G1 X118.268 Y121.730 E-0.08085
G1 X118.251 Y121.305 E-0.09833
G1 E-0.62081 F2100.00000
G1 Z0.800 F10800.000
G1 X118.846 Y127.613
G1 Z0.200
G1 E0.80000 F2100.00000
G1 F1200
G1 X118.247 Y127.014 E0.02679
G1 X118.247 Y126.476 E0.01700
G1 X119.214 Y127.443 E0.04325
G1 X119.752 Y127.443 E0.01700
G1 X118.247 Y125.938 E0.06729
G1 X118.247 Y125.400 E0.01700
G1 X120.290 Y127.443 E0.09133
G1 X120.827 Y127.443 E0.01700
G1 X118.247 Y124.863 E0.11537
G1 X118.247 Y124.325 E0.01700
G1 X121.365 Y127.443 E0.13941
G1 X121.903 Y127.443 E0.01700
G1 X118.247 Y123.787 E0.16346
G1 X118.247 Y123.250 E0.01700
G1 X122.440 Y127.443 E0.18750
G1 X122.978 Y127.443 E0.01700
G1 X118.247 Y122.712 E0.21154
G1 X118.247 Y122.371 E0.01078
G1 X118.422 Y122.349 E0.00557
G1 X123.516 Y127.443 E0.22776
G1 X124.054 Y127.443 E0.01700
G1 X120.454 Y123.843 E0.16095
G1 X120.828 Y123.890 E0.01190
G1 X121.014 Y123.866 E0.00595
G1 X124.591 Y127.443 E0.15993
G1 X125.129 Y127.443 E0.01700
G1 X121.484 Y123.798 E0.16297
G1 X121.883 Y123.660 E0.01336
G1 X125.667 Y127.443 E0.16916
G1 X125.807 Y127.443 E0.00444
G1 X125.807 Y127.046 E0.01256
G1 X122.220 Y123.459 E0.16037
G1 X122.394 Y123.356 E0.00639
G1 X122.530 Y123.231 E0.00583
G1 X125.807 Y126.508 E0.14654
G1 X125.807 Y125.970 E0.01700
G1 X122.795 Y122.959 E0.13466
G1 X123.021 Y122.646 E0.01218
G1 X125.807 Y125.433 E0.12458
G1 X125.807 Y124.895 E0.01700
G1 X123.202 Y122.290 E0.11646
G1 X123.333 Y121.883 E0.01353
G1 X125.807 Y124.357 E0.11064
G1 X125.807 Y123.820 E0.01700
G1 X123.392 Y121.405 E0.10798
G1 X123.404 Y121.313 E0.00292
G1 X123.342 Y120.816 E0.01582
G1 X125.977 Y123.451 E0.11782
G1 F8640
G1 X123.649 Y121.124 E-0.76000
G1 E-0.04000 F2100.00000
G1 Z0.800 F10800.000
G1 X119.878 Y113.588
G1 Z0.200
G1 E0.80000 F2100.00000
G1 F1200
G1 X125.807 Y119.518 E0.26511
G1 X125.807 Y118.980 E0.01700
G1 X120.604 Y113.777 E0.23264
G1 X120.933 Y113.791 E0.01042
G1 X121.130 Y113.765 E0.00629
G1 X125.807 Y118.442 E0.20911
G1 X125.807 Y117.905 E0.01700
G1 X121.568 Y113.665 E0.18956
G1 X121.958 Y113.518 E0.01320
G1 X125.807 Y117.367 E0.17209
G1 X125.807 Y116.829 E0.01700
G1 X122.292 Y113.314 E0.15718
G1 X122.579 Y113.063 E0.01205
G1 X125.807 Y116.291 E0.14434
G1 X125.807 Y115.754 E0.01700
G1 X122.825 Y112.772 E0.13333
G1 X122.895 Y112.685 E0.00352
G1 X123.023 Y112.432 E0.00897
G1 X125.807 Y115.216 E0.12449
G1 X125.807 Y114.678 E0.01700
G1 X123.186 Y112.057 E0.11718
G1 X123.277 Y111.706 E0.01149
G1 X123.281 Y111.615 E0.00288
G1 X125.807 Y114.141 E0.11294
G1 X125.807 Y113.603 E0.01700
G1 X123.295 Y111.091 E0.11233
G1 X123.226 Y110.685 E0.01301
G1 X123.115 Y110.373 E0.01045
G1 X125.807 Y113.065 E0.12035
G1 X125.807 Y112.527 E0.01700
G1 X119.463 Y106.183 E0.28367
G1 X120.000 Y106.183 E0.01700
G1 X125.807 Y111.990 E0.25963
G1 X125.807 Y111.452 E0.01700
G1 X120.538 Y106.183 E0.23559
G1 X121.076 Y106.183 E0.01700
G1 X125.807 Y110.914 E0.21155
G1 X125.807 Y110.376 E0.01700
G1 X121.614 Y106.183 E0.18750
G1 X122.151 Y106.183 E0.01700
G1 X125.807 Y109.839 E0.16346
G1 X125.807 Y109.301 E0.01700
G1 X122.689 Y106.183 E0.13942
G1 X123.227 Y106.183 E0.01700
G1 X125.807 Y108.763 E0.11538
G1 X125.807 Y108.226 E0.01700
G1 X123.764 Y106.183 E0.09133
G1 X124.302 Y106.183 E0.01700
G1 X125.807 Y107.688 E0.06729
G1 X125.807 Y107.150 E0.01700
G1 X124.840 Y106.183 E0.04325
G1 X125.378 Y106.183 E0.01700
G1 X125.977 Y106.782 E0.02679
G1 F8640
G1 X125.378 Y106.183 E-0.19569
G1 X124.840 Y106.183 E-0.12416
G1 X125.807 Y107.150 E-0.31587
G1 X125.807 Y107.688 E-0.12416
G1 X125.807 Y107.688 E-0.00013
G1 E-0.04000 F2100.00000
G1 Z0.800 F10800.000
G1 X134.348 Y113.704
G1 Z0.200
G1 E0.80000 F2100.00000
G1 F1200
G1 X134.576 Y113.401 E0.01186
G1 X134.846 Y113.155 E0.01147
G1 X135.157 Y112.964 E0.01143
G1 X135.487 Y112.836 E0.01112
G1 X135.869 Y112.766 E0.01218
G1 X136.365 Y112.789 E0.01556
G1 X136.728 Y112.890 E0.01183
G1 X137.056 Y113.052 E0.01147
G1 X137.349 Y113.272 E0.01147
G1 X137.595 Y113.542 E0.01147
G1 X137.786 Y113.853 E0.01143
G1 X137.914 Y114.182 E0.01107
G1 X137.981 Y114.540 E0.01143
G1 X137.981 Y114.906 E0.01147
G1 X137.914 Y115.264 E0.01143
G1 X137.786 Y115.595 E0.01112
G1 X137.580 Y115.925 E0.01218
G1 X137.229 Y116.275 E0.01556
G1 X136.910 Y116.476 E0.01182
G1 X136.569 Y116.609 E0.01147
G1 X136.210 Y116.677 E0.01147
G1 X135.844 Y116.677 E0.01147
G1 X135.486 Y116.610 E0.01143
G1 X135.155 Y116.482 E0.01112
G1 X134.825 Y116.276 E0.01218
G1 X134.475 Y115.925 E0.01556
G1 X134.274 Y115.606 E0.01182
G1 X134.141 Y115.265 E0.01147
G1 X134.073 Y114.906 E0.01147
G1 X134.073 Y114.540 E0.01147
G1 X134.143 Y114.168 E0.01186
G1 X134.324 Y113.759 E0.01405
G1 X134.669 Y113.911 F10800.000
G1 F1200
G1 X134.856 Y113.656 E0.00990
G1 X135.074 Y113.458 E0.00925
G1 X135.325 Y113.303 E0.00924
G1 X135.590 Y113.200 E0.00892
G1 X135.895 Y113.144 E0.00971
G1 X136.305 Y113.163 E0.01287
G1 X136.593 Y113.244 E0.00938
G1 X136.858 Y113.374 E0.00925
G1 X137.094 Y113.552 E0.00925
G1 X137.292 Y113.770 E0.00925
G1 X137.447 Y114.021 E0.00924
G1 X137.549 Y114.286 E0.00890
G1 X137.604 Y114.575 E0.00924
G1 X137.604 Y114.871 E0.00925
G1 X137.549 Y115.160 E0.00924
G1 X137.447 Y115.425 E0.00892
G1 X137.283 Y115.689 E0.00972
G1 X136.993 Y115.979 E0.01287
G1 X136.739 Y116.138 E0.00938
G1 X136.465 Y116.245 E0.00925
G1 X136.175 Y116.300 E0.00925
G1 X135.879 Y116.300 E0.00925
G1 X135.590 Y116.246 E0.00924
G1 X135.324 Y116.143 E0.00892
G1 X135.061 Y115.979 E0.00971
G1 X134.771 Y115.689 E0.01287
G1 X134.612 Y115.435 E0.00938
G1 X134.505 Y115.161 E0.00925
G1 X134.450 Y114.871 E0.00925
G1 X134.450 Y114.575 E0.00925
G1 X134.505 Y114.281 E0.00940
G1 X134.645 Y113.966 E0.01081
G1 X134.512 Y113.637 F10800.000
G1 F8640
G1 X134.856 Y113.656 E-0.08651
G1 X135.074 Y113.458 E-0.06815
G1 X135.325 Y113.303 E-0.06804
G1 X135.590 Y113.200 E-0.06570
G1 X135.895 Y113.144 E-0.07154
G1 X136.305 Y113.163 E-0.09476
G1 X136.593 Y113.244 E-0.06909
G1 X136.858 Y113.374 E-0.06815
G1 X137.094 Y113.552 E-0.06815
G1 X137.292 Y113.770 E-0.06815
G1 X137.365 Y113.887 E-0.03176
G1 E-0.04000 F2100.00000
G1 Z0.800 F10800.000
G1 X131.514 Y101.710
G1 Z0.200
G1 E0.80000 F2100.00000
G1 F1200
G1 X139.540 Y101.710 E0.25164
